svgs/duotone/folder-music.svg

<svg xmlns="http://www.w3.org/2000/svg" viewBox="0 0 512 512"><!-- Font Awesome Pro 6.0.0-alpha2 by @fontawesome - https://fontawesome.com License - https://fontawesome.com/license (Commercial License) --><defs><style>.fa-secondary{opacity:.4}</style></defs><path d="M464 96H272L208 32H48C21.5 32 0 53.5 0 80V432C0 458.5 21.5 480 48 480H464C490.5 480 512 458.5 512 432V144C512 117.5 490.5 96 464 96ZM352 352C352 369.625 330.5 384 304 384S256 369.625 256 352S277.5 320 304 320C309.375 320 314.75 320.75 320 322.001V245.625L224 283.125V384C224 401.625 202.5 416 176 416S128 401.625 128 384S149.5 352 176 352C181.375 352 186.75 352.75 192 354.001V239.25C192 232.25 196.5 226.125 203.25 224L331.25 176.75C336 175.25 341.375 176.125 345.5 179.125S352 186.875 352 192V352Z" class="fa-secondary"/><path d="M352 352C352 369.625 330.5 384 304 384S256 369.625 256 352S277.5 320 304 320C309.375 320 314.75 320.75 320 322.001V245.625L224 283.125V384C224 401.625 202.5 416 176 416S128 401.625 128 384S149.5 352 176 352C181.375 352 186.75 352.75 192 354.001V239.25C192 232.25 196.5 226.125 203.25 224L331.25 176.75C336 175.25 341.375 176.125 345.5 179.125S352 186.875 352 192V352Z" class="fa-primary"/></svg>

<svg xmlns="http://www.w3.org/2000/svg" viewBox="0 0 512 512"><!--! Font Awesome Pro 6.3.0 by @fontawesome - https://fontawesome.com License - https://fontawesome.com/license (Commercial License) Copyright 2023 Fonticons, Inc. --><defs><style>.fa-secondary{opacity:.4}</style></defs><path class="fa-primary" d="M352 352c0 17.62-21.5 32-48 32S256 369.6 256 352s21.5-32 48-32c5.375 0 10.75 .7499 16 2V245.6l-96 37.5V384c0 17.62-21.5 32-48 32S128 401.6 128 384s21.5-32 48-32c5.375 0 10.75 .7499 16 2V239.3C192 232.3 196.5 226.1 203.3 224l128-47.25C336 175.3 341.4 176.1 345.5 179.1S352 186.9 352 192V352z"/><path class="fa-secondary" d="M464 96h-192l-64-64h-160C21.5 32 0 53.5 0 80v352C0 458.5 21.5 480 48 480h416c26.5 0 48-21.5 48-48v-288C512 117.5 490.5 96 464 96zM352 352c0 17.62-21.5 32-48 32S256 369.6 256 352s21.5-32 48-32c5.375 0 10.75 .7499 16 2V245.6l-96 37.5V384c0 17.62-21.5 32-48 32S128 401.6 128 384s21.5-32 48-32c5.375 0 10.75 .7499 16 2V239.3C192 232.3 196.5 226.1 203.3 224l128-47.25C336 175.3 341.4 176.1 345.5 179.1S352 186.9 352 192V352z"/></svg>
